X: 1
T:Jennie's Bawbee. JMT115
M:C
L:1/8
Q:200
S:J,Moore,Tyneside,1841.(81a)
R:Reel
O:England
A:Northumbria
Z:J.A
K:D
fg | (ab)ag (fd)df | (gf)ed (cA)Af | (ab)ag (fe)df | Bece d2 :|!
|de | (fd)ge fddf | (gf)ed (cA)Ag | (fd)ge (fe)df | (Be)ce (de)fg |!
 (fd)ge (fd)df | (gf)ed (cB)Ag | (fa)gf (gb)ag | fgef d2||
